X:80
T:Hen and Her Clutch (reel), The 
B:CRE1.117 (Chearc is a hAl)
F:file ID: cre.1/080hen_c
N:aka "Hen and Her Brood"
Q:180
L:1/8
M:4/4
R:reel
K:Am
A3c B3G|A2 a^f ged2|B2Ac BEE2|G3A BcdB|
A3c B3G|A2 a^f ge d2|B2 Ac BE E2|G3A Bc d2||
e^fge a3g|e^fga ge d2|e^fge a2 (3bag|agge d3 z|
e^fge a3g|e^fga ge d2|e^fge a2 (3bag|agge d4|]

%%%

